X: 32939
T: Presbyterian, The
R: three-two
M: 3/2
K: Gminor
|:G2d2 d2G2 cBAG|(^F2A2) A2F2 [A4D4]|G2B2 ABc2 Bcd2|(F2G2) (G2B2) A2G2:|
(g2b2) (b2g2) b2ag|(f2a2) (a2f2) a2gf|(e2f2) (g2f2) (g2a2)|f4- f3e2 (d2c2)|
(b2d2) (f2B2) (d2f2)|(A2c2) (f2A2) (c2f2)|(g2B2) (d2G2) (B2d2)|^F4- F2E2 (D2C2)|
(B,2D2) (D2B,2) D2CB,|(A,2C2) (C2A,2) C2B,A,|(G2B,2) (A,2C2) (B,2D2)|(C2E2) (D2^F2) G4||

